!!!COM:	Hindemith
!!!OTL:	618_Hin-13/8/19-27
**kern	**kern	**dynam
*part1	*part1	*part1
*staff2	*staff1	*S
*I"Piano	*	*
*I'Pno.	*	*
*clefF4	*clefG2	*
*k[]	*k[]	*
*C:	*C:	*
*M2/4	*M2/4	*
=1	=1	=1
4r	4r	.
4DD#X^ 4D#X	4e^ 4ee	ff
=2	=2	=2
*M4/4	*M4/4	*
*^	*^	*
4r	2GGG#X 2GG#X	8r	2.a 2.b 2.aa	mf
.	.	4ee-X 4ff	.	.
4F#X 4B 4d	.	.	.	.
.	.	4ee- 4ff	.	.
4r	2GGG# 2GG#	.	.	.
.	.	4ee- 4ff	.	.
4F# 4B 4d	.	.	[4g#X [4a [4gg#X	.
.	.	8ee- 8ff	.	.
=3	=3	=3	=3	=3
4r	2GGG#X 2GG#X	1r	8g#] 8a] 8gg#]	<
.	.	.	4a 4b 4aa	.
4F#X 4B 4d	.	.	.	.
.	.	.	4cc^ 4ee-X 4bb	.
2r	4GGG#^ 4GG#	.	.	.
.	.	.	8b 8dd 8gg	.
.	[4GGG#^ [4GG#	.	[4b-X [4dd-X [4aa	.
=4	=4	=4	=4	=4
4F#X 4B 4d	4GGG#] 4GG#]	2r	8b-L] 8dd-] 8aa]	>
.	.	.	8f 8ff	.
4r	2GGG#X 2GG#X	.	8e 8ee	.
.	.	.	8dJ 8dd	.
4r	.	8r	4a 4b 4aa	]
.	.	4ee-X 4ff	.	.
4F# 4B 4d	4GGG# 4GG#	.	4a 4b 4aa	.
.	.	8ee- 8ff	.	.
=5	=5	=5	=5	=5
4r	2BBB 2BB	8r	2.cc 2.dd 2.ccc	mf
.	.	4gg-X 4aa-X	.	.
4A 4d 4f	.	.	.	.
.	.	4gg- 4aa-	.	.
4r	2BBB 2BB	.	.	.
.	.	4gg- 4aa-	.	.
4A 4d 4f	.	.	[4b#X [4cc [4bb#X	.
.	.	8gg- 8aa-	.	.
=6	=6	=6	=6	=6
!!linebreak:original
4r	2BBB 2BB	1r	8b#] 8cc 8bb#]	<
.	.	.	4ccn 4dd 4ccc	.
4A 4d 4f	.	.	.	.
.	.	.	4ee-X^ 4gg-X 4ddd	.
4r	4BBB^ 4BB	.	.	.
.	.	.	8dd 8ff 8bb-X	.
4r	[4BBB^ [4BB	.	[4cc#X [4ee- [4cccn	.
=7	=7	=7	=7	=7
4A 4d 4f	4BBB] 4BB]	2r	8cc#L] 8ee-] 8ccc]	>
.	.	.	8a-X 8aa-X	.
4r	2BBB 2BB	.	8g 8gg	.
.	.	.	8fJ 8ff	.
4A 4d 4f	.	8r	4cc 4dd 4ccc	]
.	.	4gg-X 4aa-X	.	.
4r	4BBB 4BB	.	4cc 4dd 4ccc	.
.	.	8gg- 8aa-	.	.
*v	*v	*	*	*
*	*v	*v	*
*clefG2	*	*
=8	=8	=8
!!linebreak:original
8d^L 8f	8r	.
.	(16qqbb#X/	fz
.	16qqddd/	.
[8d^ [8f	4ccc#X^)	.
8d'_ 8f_ 8a-X 8cc	.	.
8d'J] 8f] 8a- 8cc	[8ccc#	fz
8d^L 8f	12ccc#L]	.
.	12ccc#	.
[8d^J [8f	.	.
.	[12ccc#^J	.
(16dLL_ 16f_ 16ff	12ccc#L	.
16d_ 16f_ 16cc	.	.
.	12ccc#	.
16d_ 16f_ 16ee-X	.	.
.	12ccc#J	.
16dJJ] 16f] 16b-X	.	.
=9	=9	=9
4aT)	(24dddLL	.
.	24eee	.
.	24fff	.
.	24eee	.
.	24ddd	.
.	24cccJJ)	.
(16ffLL	4.ddd	.
16cc	.	.
16ee-X	.	.
16b-XJJ	.	.
4at)	.	.
.	(16qqccc#X/	fz
.	16qqeee-X/	.
.	4ddd^)	.
(16ffLL	.	.
16cc	.	.
16ee-	[8ddd	fz
16b-JJ)	.	.
==	==	==
*-	*-	*-
!!!system-decoration: {(s1,s2)}
!!!ONB: Converted from MusicXML on 2019/06/05
